X:124
T:Shoutin Up the Spirit 
R:polka
C: 2005, 2010 L.E. McCullough 
M:2/4
L:1/8
K:G
|:G/G/A FD|G/F/G/A/ B>D|BG cB|BA2F|G/G/A FD|G/F/G/A/ B>D|de B>A|A G3:|
|cd ec|B/c/d G>B|cd ec|dg3|cd ec|B/c/d G>B|de B>A|AG3|
cd ec|B/c/d G>B|cd eg|f d3|cd ec|B/c/d G>B|de B>A|AG2G|]
|:A>G A>B|A/G/F D2|AB cB|B A2 G|A>G A>B|A/G/F D2|de B>A|A G2 G:|
<end>
<start>
